X:1
T:Weisse Flaggen, 87.87 D
T:Weisse Flaggen, 87.87 D
T:Tochter Sion (Cologne, German
T:Public Domain Courtesy of the Cyber Hymnal™
C:Tochter Sion (Cologne, German
Z:Public Domain
Z:Courtesy of the Cyber Hymnal™
%%score ( 1 2 ) ( 3 4 )
L:1/8
Q:1/4=115
M:4/4
K:Bb
V:1 treble 
V:2 treble 
V:3 bass 
V:4 bass 
V:1
 [DB]2 F2 [FG]2 [EG]2 | [CF]2 [CE]2 (DC) B,2 | [DB]2 (AG) [Cc]2 (BA) | [DG]2 [CG]2 [A,F]4 | %4
 [B,B]2 [DF]2 [EG]2 [EG]2 | [CF]2 [CE]2 (DC) B,2 | [DB]2 (AG) [Cc]2 (BA) | [G,G]2 [CG]2 [A,F]4 | %8
 [FB]2 [Fc]2 [Fd]2 (cd) | (ed) (cB) [Cc]2 F2 | [DB]2 [Fc]2 [Fd]2 ([Gc][Fd]) | (ed) (cB) [Ac]4 | %12
 [FB]2 (B_A) [FG]2 [EG]2 x2 | [Gc]2 (cB) [GA]2 [FA]2 | [DB]2 [Fc]2 [Fd]2 (ed) | %15
 [Cc]2 [Fc]2 [DB]4 |] %16
V:2
 x2 F2 x4 | x4 B,2 B,2 | x2 C2 x D2 x | x8 | x8 | x4 B,2 B,2 | x2 C2 x D2 x | x8 | x6 F2 | %9
 G2 E2 x F2 x | x8 | E2 G2 x4 | x2 F2 x6 | x2 G2 x4 | x6 G2 | x8 |] %16
V:3
 [B,,F,]2 [D,B,]2 [E,B,]2 [C,C]2 | [F,A,]2 [A,,F,]2 (F,E,) [B,,D,]2 | %2
 [G,,G,]2 [C,=E,]2 [A,,F,]2 [D,F,]2 | [B,,F,]2 [C,=E,]2 [F,,F,]4 | %4
 [D,F,]2 [B,,B,]2 [E,B,]2 [C,C]2 | [F,A,]2 [A,,F,]2 (F,E,) [B,,D,]2 | %6
 [G,,G,]2 =E,2 [A,,F,]2 [B,,F,]2 | [C,F,]2 [C,=E,]2 [F,,F,]4 | [D,F,]2 [F,A,]2 B,2 ([A,C] B,) | %9
 [E,B,]2 [G,B,]2 [F,B,]2 [F,A,]2 | [G,B,]2 [F,A,]2 [D,A,]2 G,2 | [C,G,]2 (ED) [F,C]4 | %12
 [B,,D]2 [D,B,]2 B,2 z x3 | [C,E]2 [E,C]2 [F,C]2 (FE) | [G,D]2 [A,C]2 B,2 [E,B,]2 | %15
 [F,B,]2 [F,A,]2 [B,,B,]4 |] %16
V:4
 x8 | x4 B,,2 x2 | x8 | x8 | x8 | x4 A,,2 x2 | x2 (C,B,,) x4 | x8 | x4 B,2 B, x | x8 | x6 (E,D,) | %11
 x2 C,2 x4 | x4 E,3 (B,2 D,) | x6 F,2 | x4 B,2 x2 | x8 |] %16

